X: 3
T: Sally in the Garden, Assisting Sam
M: C|
L: 1/8
R: Reel
Q: 200
K: Amin
E2|"Am"A2B2c2d2 |e2a2 e2>d2|c2A2 ABcA|"E"B^GEG BGEG|"Am"A2B2c2d2 |
"Am"e2a2 e2>d2|"(F)"c2A2 "G"ABAG|E2"Am"A2A2:||:E2|"F"ABAG "Em"E2 AB|"Am"c2B2c2B2|
"F"ABAG "Em"E2GA |"G"B2 BA BAG2|"F"ABAG "Em"E2 AB|"Am"c2B2c2d2|e2A2 ABAG|"Em"E2A2"Am"A2:|]

%%newpage
%%textfont * 14
%%begintext justify
%%32 Bar Reels
%%endtext

